!!!!SEGMENT: pl-kk--kk-i-1--052_anonim--salve-sancta-parens.krn
!!!cenid: 15xx:772
!!!COM: Anonim
!!!COM-rismID: pe30004985
!!!CDT:
!!!CNT:
!!!OTL: Salve Sancta parens
!!!PDT:
!!!AGN:
!!!SMS-siglum: PL-Kk
!!!SMS-shelfmark: Kk.I.1
!!!SMS-shelfwork: 052 W
!!!SMS-variant:
!!!SMS-altvar:
!!!NIFC-rismSourceID: 300258004
!!!NIFC-islandoraID: pl-kk:1
!!!URL-pdf-islandora: https://repozytorium.nifc.pl/islandora/object/pl-kk%3A1/datastream/PDF/view
!!!URL-scan: https://polish.musicsources.pl/pl/lokalizacje/galeria/rekopisy/5736 @EN{Scan on Polish Music Sources Website} @PL{Skany w portalu Dziedzictwo Muzyki Polskiej w otwartym dostępie}
!!!ONB-nifc: UWAGA: Cantus (s. 162v-163v, skan 0165-0166), Altus (s. 159r-160v, skan 0352-0353), Tenor (s. 138r-v, skan 0528-0529), Bassus (s. 148v-150r, skan 0711-0712).
!!!AIN: 1 alto 1 bass 1 soprn 1 tenor
!!!key:
**kern	**text	**kern	**text	**kern	**text	**kern	**text
*part4	*part4	*part3	*part3	*part2	*part2	*part1	*part1
*staff4	*staff4	*staff3	*staff3	*staff2	*staff2	*staff1	*staff1
*I"BASSVS	*	*I"TENOR	*	*I"ALTVS	*	*I"CANTVS	*
*I'B	*	*I'T	*	*I'A	*	*I'S	*
*Ibass	*	*Itenor	*	*Ialto	*	*Isoprn	*
*ICvox	*	*ICvox	*	*ICvox	*	*ICvox	*
*clefF5	*	*clefC4	*	*clefC4	*	*clefC4	*
*k[]	*	*k[]	*	*k[]	*	*k[]	*
*C:	*	*C:	*	*C:	*	*C:	*
*M2/1	*	*M2/1	*	*M2/1	*	*M2/1	*
*stria6	*	*stria6	*	*stria6	*	*stria6	*
*met(C|)	*	*met(C|)	*	*met(C|)	*	*met(C|)	*
=1-	=1-	=1-	=1-	=1-	=1-	=1-	=1-
!LO:TX:a:i:t=Q(uat)uor	!	!LO:TX:a:i:t=Quatuor.	!	!	!	!	!
*	*	*lig	*	*	*	*	*
!	!	!	!	!LO:TX:t=P:problem=po kluczu mały znak repetycji na pierwszym polu	!	!	!
!	!	!	!	!LO:TX:a:t=Quatuor.	!	!	!
!	!	!LO:TX:a:t=Quatuor.	!	!	!	!LO:TX:a:t=Quatuor.	!
2.E\	SAl-	1E	SA-	0r	.	1re	.
4D/	.	.	.	.	.	.	.
2C/	.	1G	.	.	.	2.e\	SAl-
2BB/	.	.	.	.	.	.	.
.	.	.	.	.	.	4d\	.
*	*	*Xlig	*	*	*	*	*
=2-	=2-	=2-	=2-	=2-	=2-	=2-	=2-
*	*	*lig	*	*	*	*	*
0AA	-ue	1A	.	2.e\	SAl-	2.c/	.
.	.	.	.	4d\	.	4B/	.
.	.	1c	.	4c/	.	2A/	-ue
.	.	.	.	4B/	.	.	.
.	.	.	.	4A/	.	2e\	ſanc-
.	.	.	.	4G/	.	.	.
*	*	*Xlig	*	*	*	*	*
=3-	=3-	=3-	=3-	=3-	=3-	=3-	=3-
2.D/	ſan-	1A,	-ue	2.F/	.	2f\	-ta
.	.	.	.	.	.	2f\	pa-
4E\	.	.	.	4G/	.	.	.
4F\	.	1A	ſan-	4A/	.	2e\	-rens
4G\	.	.	.	4B/	.	.	.
*	*	*	*	*	*	*	*ij
2A\	.	.	.	2c/	.	1f\	ſanc-
=4-	=4-	=4-	=4-	=4-	=4-	=4-	=4-
*	*	*lig	*	*	*	*	*
1F	-cta	1A	-cta	4d\	.	.	.
.	.	.	.	4c/	.	.	.
.	.	.	.	4B/	.	2d\	-ta
.	.	.	.	4A/	.	.	.
1E	pa-	1G	.	1B	.	1e	pa-
*	*	*Xlig	*	*	*	*	*
=5-	=5-	=5-	=5-	=5-	=5-	=5-	=5-
*	*	*lig	*	*	*	*	*
2AA/	-rens	1A	pa-	2A/	-ue	2c\	-rens
*	*ij	*	*	*	*	*	*Xij
1A	SAl-	.	.	2F/	ſan-	2d\	.
.	.	1B	.	2E/	-cta	1e	.
*	*	*	*	*custos:A	*	*	*
2G\	-ue	.	.	2E/	pa-	.	.
!	!	!	!	!LO:LB:g=original	!	!	!
*	*	*Xlig	*	*	*	*	*
=6-	=6-	=6-	=6-	=6-	=6-	=6-	=6-
*	*	*lig	*	*	*	*	*
2A\	ſan-	1c	.	1A	-rens	1.e	ſanc-
*custos:C	*	*	*	*	*	*	*
2AA/	-cta	.	.	.	.	.	.
!LO:PB:g=original	!	!	!	!	!	!	!
*clefF4	*	*	*	*	*ij	*	*
2C/	pa-	1A	.	2r	.	.	.
2D/	.	.	.	2d\	SAl-	2f\	-ta
*	*	*Xlig	*	*	*	*	*
=7-	=7-	=7-	=7-	=7-	=7-	=7-	=7-
1E	.	1G	.	2c/	.	1e	pa-
.	.	.	.	2B/	-ue	.	.
1.F	.	1A	-rens	4A/	ſanc-	1e	-re(n)s
.	.	.	.	4B/	.	.	.
.	.	.	.	4c/	.	.	.
.	.	.	.	4A/	.	.	.
=8-	=8-	=8-	=8-	=8-	=8-	=8-	=8-
*	*	*lig	*	*	*	*	*
.	.	1G	e-	2B/	.	2re	.
2E/	.	.	.	2c/	-ta	1g	e-
1D	-rens	1A	.	1d	pa-	.	.
.	.	.	.	.	.	2f\	-ni-
*	*Xij	*Xlig	*	*	*	*	*
=9-	=9-	=9-	=9-	=9-	=9-	=9-	=9-
*	*	*lig	*	*	*	*	*
*	*	*	*	*	*	*custos:g	*
1C	e-	1c	-ni-	2G/	-rens	1e	-xa
*	*	*	*	*	*Xij	*	*
.	.	.	.	1c	e-	.	.
!	!	!	!	!	!	!LO:PB:g=original	!
1G	-ni-	1d	.	.	.	2re	.
.	.	.	.	2B/	-ni-	2g\	pu-
*	*	*Xlig	*	*	*	*	*
=10-	=10-	=10-	=10-	=10-	=10-	=10-	=10-
*	*	*custos:c	*	*	*	*	*
0C	-xa	1c	-xa	2c/	-xa	2.g\	-er-
.	.	.	.	2G/	pu-	.	.
.	.	.	.	.	.	4f\	-pe-
!	!	!LO:LB:g=original	!	!	!	!	!
.	.	1c	pu-	2.G/	-er-	2.e\	-ra
.	.	.	.	4G/	-pe-	4d\	re-
=11-	=11-	=11-	=11-	=11-	=11-	=11-	=11-
2r	.	1c	-er-	1.A	-ra	2c/	-gem
*	*	*	*	*	*	*	*ij
2.F/	pu-	.	.	.	.	2.f\	e-
.	.	1c	-pe-	.	.	.	.
4G\	.	.	.	.	.	4f\	-ni-
2.A\	.	.	.	2.F/	re-	2f\	-xa
=12-	=12-	=12-	=12-	=12-	=12-	=12-	=12-
*	*	*lig	*	*	*	*	*
.	.	1c	-ra	.	.	2f\	pu-
4B\	.	.	.	4G/	.	.	.
1c	.	.	.	2A/	.	4e\	.
.	.	.	.	.	.	4f\	.
*	*	*	*	*custos:C	*	*	*
.	.	1d	.	1G	.	1g	.
2B\	-er-	.	.	.	.	.	.
!	!	!	!	!LO:LB:g=original	!	!	!
*	*	*Xlig	*	*	*	*	*
=13-	=13-	=13-	=13-	=13-	=13-	=13-	=13-
4c\	-pe-	1c	.	2C/	-gem	2e\	-er-
4B\	.	.	.	.	.	.	.
4A\	.	.	.	2c/	pu-	2a\	.
4G\	.	.	.	.	.	.	.
*	*	*lig	*	*	*	*	*
2F/	-ra	1c	re-	2f\	-er-	2a\	-pe-
*custos:G	*	*	*	*	*	*	*
2F/	pu-	.	.	2f\	-pe-	2a\	-ra
!LO:LB:g=original	!	!	!	!	!	!	!
=14-	=14-	=14-	=14-	=14-	=14-	=14-	=14-
1G	-er-	1B	.	2e\	-ra	1g	.
.	.	.	.	2d\	.	.	.
*	*	*Xlig	*	*	*	*	*
*	*	*lig	*	*	*	*	*
2A\	-pe-	1A	.	4c/	re-	2c/	re-
.	.	.	.	4B/	.	.	.
2F/	-ra	.	.	1A/	.	2d\	.
=15-	=15-	=15-	=15-	=15-	=15-	=15-	=15-
1E	re-	1B	.	.	.	0e	-gem
.	.	.	.	2G/	.	.	.
*	*	*Xlig	*	*	*	*	*Xij
*	*	*lig	*	*	*	*	*
1AA	-gem	1c	-gem	1A	-gem	.	.
=16-	=16-	=16-	=16-	=16-	=16-	=16-	=16-
1D	qui	1A	.	2rF	.	1d	qui
.	.	.	.	1F	qui	.	.
*	*	*Xlig	*	*	*	*	*
2D/	cae-	1A	qui	.	.	2d\	cae-
4C/	.	.	.	4E/	cae-	2A/	-lum
4BB/	.	.	.	4D/	.	.	.
=17-	=17-	=17-	=17-	=17-	=17-	=17-	=17-
2AA/	-lum	1c	cae-	2E/	-lum	1A	ter-
2AA/	ter-	.	.	2F/	ter-	.	.
*	*	*lig	*	*	*	*	*
1GG	-ram-	1B	-lum	0G	-ram	4B/	-ram
*	*	*	*	*	*	*custos:g	*
.	.	.	.	.	.	4G/	.
*	*	*	*	*	*	*	*ij
!	!	!	!	!	!	!LO:LB:g=original	!
.	.	.	.	.	.	1g\	qui
=18-	=18-	=18-	=18-	=18-	=18-	=18-	=18-
1C	-q(ue)	1c	.	.	.	.	.
.	.	.	.	.	.	2e\	cae-
*	*	*Xlig	*	*	*	*	*
1D	re-	1A	ter-	2rF	.	1d	-lum
.	.	.	.	2F/	qui	.	.
=19-	=19-	=19-	=19-	=19-	=19-	=19-	=19-
*	*	*lig	*	*	*	*	*
2AA/	-git	1A	-ram-	2E/	cae-	2.c/	ter-
1A	qui	.	.	2F/	-lum	.	.
.	.	.	.	.	.	4d\	.
.	.	1B	.	1E	ter-	1e	-ram
2G\	cae-	.	.	.	.	.	.
*	*	*Xlig	*	*	*	*	*Xij
=20-	=20-	=20-	=20-	=20-	=20-	=20-	=20-
*	*	*lig	*	*	*	*	*
2F/	-lum	1c	.	2A/	-ram	2re	.
2E/	ter-	.	.	2G/	q(ue)	2e\	qui
*	*	*	*	*custos:E	*	*	*
1D	-ram	1A	.	1F	re-	2f\	cae-
.	.	.	.	.	.	2d\	-lum
!	!	!	!	!LO:LB:g=original	!	!	!
*	*	*Xlig	*	*	*	*	*
=21-	=21-	=21-	=21-	=21-	=21-	=21-	=21-
*	*	*lig	*	*	*	*	*
1C	qui	1c	.	1E	-git	2e\	ter-
.	.	.	.	.	.	2g\	-ram-
2D/	cae-	1A	.	2rF	.	2f\	.
2C/	-lu(m)	.	.	2A/	qui	2e\	-q(ue)
*	*	*Xlig	*	*	*	*	*
=22-	=22-	=22-	=22-	=22-	=22-	=22-	=22-
*custos:A	*	*	*	*	*	*	*
*	*	*lig	*	*	*	*	*
1BB	ter-	1G	-q(ue)	1B	cae-	1d	re-
*	*	*custos:A	*	*	*	*	*
!LO:LB:g=original	!	!	!	!	!	!	!
2AA/	-ram	1A	.	2c#X/	-lum	2c#X/	-git
*	*	*	*	*	*	*	*ij
1D/	qui	.	.	1d\	ter-	1f\	qui
!	!	!LO:LB:g=original	!	!	!	!	!
*	*	*Xlig	*	*	*	*	*
=23-	=23-	=23-	=23-	=23-	=23-	=23-	=23-
*	*	*lig	*	*	*	*	*
.	.	1A	re-	.	.	.	.
1F	cae-	.	.	4c/ny	.	2f\	cae-
.	.	.	.	4B/	.	.	.
.	.	1c	.	2A/	.	2f\	-lum
2C/	-lum	.	.	1G/	-ram-	2.e\	ter-
*	*	*Xlig	*	*	*	*	*
=24-	=24-	=24-	=24-	=24-	=24-	=24-	=24-
*	*	*lig	*	*	*	*	*
1D	ter-	1A	.	.	.	.	.
.	.	.	.	.	.	4d\	.
.	.	.	.	2F/	-q(ue)	1d	-ram-
1E	-ram-	1G	.	4G/	.	.	.
.	.	.	.	4A/	.	.	.
.	.	.	.	4B/	.	1g\	.
.	.	.	.	4c/	.	.	.
*	*	*Xlig	*	*	*	*	*
=25-	=25-	=25-	=25-	=25-	=25-	=25-	=25-
1.D	-q(ue)	1A	.	1.d	.	.	.
.	.	.	.	.	.	4f\	.
.	.	.	.	.	.	4e\	.
*	*	*lig	*	*	*	*	*
.	.	1A	-git	.	.	2f#X\	-que
2D/	re-	.	.	2d\	re-	2f#\	re-
=26-	=26-	=26-	=26-	=26-	=26-	=26-	=26-
1GG	-git	1G	.	1B	-git	2g\	-git
*	*	*	*	*	*	*	*Xij
*	*	*	*	*	*	*custos:e	*
.	.	.	.	.	.	2d\	in
!	!	!	!	!	!	!LO:LB:g=original	!
*	*	*Xlig	*	*	*	*	*
*	*	*lig	*	*	*	*	*
2rBB	.	1G	in	2rd	.	2e\	ſe-
2C/	in	.	.	2c/	in	2e\	-cu-
=27-	=27-	=27-	=27-	=27-	=27-	=27-	=27-
2F/	ſ(ae)-	1A	.	2c/	ſ(ae)-	1fny	-la
2D/	-cu-	.	.	2d\	-cu-	.	.
*	*	*Xlig	*	*	*	*	*
*	*	*lig	*	*	*	*	*
*	*	*	*	*custos:f	*	*	*
1A	-la	1c	ſ(ae)-	1e	-la	1re	.
!	!	!	!	!LO:PB:g=original	!	!	!
=28-	=28-	=28-	=28-	=28-	=28-	=28-	=28-
1rA	.	1d	.	2f\	ſ(ae)-	2rc	.
.	.	.	.	1d	.	1f	ſe-
*	*ij	*Xlig	*	*	*	*	*
0AA	in	1A	-cu-	.	.	.	.
.	.	.	.	4c#X/	.	4e\	.
.	.	.	.	4B/	.	4d\	.
=29-	=29-	=29-	=29-	=29-	=29-	=29-	=29-
.	.	1A	-la	2c#X/	-cu-	2e\	-cu-
.	.	.	.	2c#/	-lo-	2e\	-lo-
*	*	*lig	*	*	*	*	*
2D/	ſ(ae)-	1A	ſ(ae)-	1d	-rum	2.f\	.
2D/	-cu-	.	.	.	.	.	.
.	.	.	.	.	.	4e\	.
=30-	=30-	=30-	=30-	=30-	=30-	=30-	=30-
2GG/	-la	1B	.	2rc	.	4d\	.
*	*Xij	*	*	*	*	*	*
.	.	.	.	.	.	4cny\	.
2G\	ſ(ae)-	.	.	2G/	in	2d\	.
*	*	*Xlig	*	*	*	*	*
*	*	*lig	*	*	*	*	*
2F/	-cu-	1c	.	2A/	ſ(ae)-	2A/	-rum
*custos:D	*	*	*	*	*	*	*
2E/	-lo-	.	.	2G/	-cu-	2e\	in
!LO:LB:g=original	!	!	!	!	!	!	!
=31-	=31-	=31-	=31-	=31-	=31-	=31-	=31-
2D/	-rum	1d	.	2.F/	-la	1.f	ſ(ae)-
2D/	in	.	.	.	.	.	.
.	.	.	.	4G/	.	.	.
*	*	*Xlig	*	*	*	*	*
2F/	ſ(ae)-	1d	-cu-	2A/	.	.	.
2G\	-cu-	.	.	2B/	.	2d\	-cu-
=32-	=32-	=32-	=32-	=32-	=32-	=32-	=32-
*	*	*lig	*	*	*	*	*
2C/	-la	1c	-lo-	2c/ny	ſe-	2e\	-la
2E/	ſ(ae)-	.	.	2G/	-cu-	2g\	ſ(ae)-
2D/	-cu-	1d	.	2A/	-lo-	2f\	-cu-
2BB/	-lo-	.	.	2B/	-rum	2d\	-lo-
*	*	*Xlig	*	*	*	*	*
=33-	=33-	=33-	=33-	=33-	=33-	=33-	=33-
*	*	*lig	*	*	*	*	*
4AA/	-rum	1c	.	2c/	ſe-	0e	-rum
4BB/	.	.	.	.	.	.	.
4C/	.	.	.	1A	.	.	.
4D/	.	.	.	.	.	.	.
2E/	.	1B	.	.	.	.	.
*	*	*	*	*custos:A	*	*	*
2E/	in	.	.	2G/	-cu-	.	.
!	!	!	!	!LO:LB:g=original	!	!	!
*	*	*Xlig	*	*	*	*	*
=34-	=34-	=34-	=34-	=34-	=34-	=34-	=34-
*	*	*lig	*	*	*	*	*
1F	ſ(ae)-	1A	.	4A/	-lo-	2r	.
.	.	.	.	4B/	.	.	.
.	.	.	.	4c/	.	2A/	ſ(ae)-
.	.	.	.	4d\	.	.	.
1E	-cu-	1B	.	2e,<\	-rum,	2A/	-cu-
.	.	.	.	2e\	in	2G/	-lo-
*	*	*Xlig	*	*	*	*	*
=35-	=35-	=35-	=35-	=35-	=35-	=35-	=35-
*	*	*lig	*	*	*	*	*
1AA	-la	1c	-rum.	2e\	ſe-	1A	-rum
.	.	.	.	2e\	-cu-	.	.
1.F	ſ(ae)-	[y1A;<	.	2c/	-la	2rc	.
.	.	.	.	1A/	ſe-	2c/	in
*	*	*Xlig	*	*	*	*	*
=36-	=36-	=36-	=36-	=36-	=36-	=36-	=36-
.	.	00A]yy	.	.	.	2d\	ſ(ae)-
*	*	*	*	*	*	*custos:f	*
2E/	.	.	.	2G/	-cu-	2e\	-cu-
!	!	!	!	!	!	!LO:LB:g=original	!
2D/	.	.	.	4F/	.	2f\	-la
.	.	.	.	4D/	.	.	.
2C/	-cu-	.	.	2E/	.	2e\	ſe-
=37-	=37-	=37-	=37-	=37-	=37-	=37-	=37-
1D	-lo-	.	.	1F	-lo-	2d\	-cu-
.	.	.	.	.	.	2d\	-lo-
*	*	*	*custos:G	*	*	*	*
!LO:N:vis=00	!	!	!	!LO:N:vis=00	!	!LO:N:vis=00	!
1AA;>	-rum.	.	.	1E;>	-rum.	1c	-rum.
.	.	.	.	.	.	.	.
!LO:PB:g=original	!	!LO:PB:g=original	!	!LO:LB:g=original	!	!	!
=38-	=38-	=38-	=38-	=38-	=38-	=38-	=38-
!	!	!LO:TX:a:t=Verſ&colon;	!	!	!	!	!
1.E	E-	1G	E-	0rA	.	1B	E-
.	.	1A	-Ruc-	.	.	2c/	-Ruc-
2D/	-Ruc-	.	.	.	.	2d\	-ta-
=39-	=39-	=39-	=39-	=39-	=39-	=39-	=39-
1C	-ta-	1c	-ta-	1G	E-	2e\	-uit
.	.	.	.	.	.	2e\	cor
1AA	-uit	1c	-uit	1A	-ru-	1e	me-
=40-	=40-	=40-	=40-	=40-	=40-	=40-	=40-
2.A\	cor	1c	cor	2c/	-cta-	1e	-u(m)
.	.	.	.	2A/	-uit	.	.
4G\	.	.	.	.	.	.	.
2F/	me-	1c	me-	2A/	cor	2rf	.
2E/	-um	.	.	2G/	me-	2g\	ver-
=41-	=41-	=41-	=41-	=41-	=41-	=41-	=41-
2.F/	Ver-	1c	-u(m)	1A	-u(m)	1f	.
4G\	.	.	.	.	.	.	.
4A\	.	1c	ver-	2r	.	2f\	-bum
4B\	.	.	.	.	.	.	.
2c\	-bum	.	.	1c\	ver-	4e\	bo-
.	.	.	.	.	.	4f\	.
=42-	=42-	=42-	=42-	=42-	=42-	=42-	=42-
0G	bo-	1d	-bu(m)	.	.	0g	.
.	.	.	.	4B/	.	.	.
.	.	.	.	4A/	.	.	.
.	.	1d	bo-	2B/	-bum	.	.
.	.	.	.	2B/	bo-	.	.
=43-	=43-	=43-	=43-	=43-	=43-	=43-	=43-
1C	-num	1c	-nu(m)	2c/	-num	1e	-num
.	.	.	.	2e\	di-	.	.
1.F	di-	1A	di-	1.f	-co	2rg	.
.	.	.	.	.	.	1a\	di-
=44-	=44-	=44-	=44-	=44-	=44-	=44-	=44-
.	.	1c	-co	.	.	.	.
2F/	-co	.	.	2f\	e-	2a\	-co
1F	e-	1c	e-	1f	-go	1a	e-
=45-	=45-	=45-	=45-	=45-	=45-	=45-	=45-
1C	-go	1c	-go	2rf	.	2g\	-go
*	*	*	*	*	*ij	*	*
*	*	*	*	*custos:c	*	*custos:e	*
.	.	.	.	2e\	di-	2g\	o-
!	!	!	!	!LO:LB:g=original	!	!LO:PB:g=original	!
2rC	.	1c	o-	2c/	-co	2e\	-pe-
1A\	o-	.	.	2A/	e-	2c/	-ra
=46-	=46-	=46-	=46-	=46-	=46-	=46-	=46-
.	.	1c	-pe-	2e\	-go	1e	me-
*	*	*	*	*	*Xij	*	*
*custos:D	*	*	*	*	*	*	*
2A\	-pe-	.	.	2.A/	o-	.	.
!LO:LB:g=original	!	!	!	!	!	!	!
1D	-ra	1d	-ra	.	.	1.f	-a
.	.	.	.	4A/	-pe-	.	.
.	.	.	.	2A/	-ra	.	.
=47-	=47-	=47-	=47-	=47-	=47-	=47-	=47-
*	*	*lig	*	*	*	*	*
2.F/	me-	1c	me-	2.A/	me-	.	.
.	.	.	.	.	.	2f\	re-
4G\	.	.	.	4B/	.	.	.
*	*	*custos:c	*	*	*	*	*
2A\	.	1A	.	2c/	-a	2e\	-gi
2F/	-a	.	.	2A/	re-	2.a\	o-
!	!	!LO:LB:g=original	!	!	!	!	!
*	*	*Xlig	*	*	*	*	*
=48-	=48-	=48-	=48-	=48-	=48-	=48-	=48-
1A	re-	1c	-a	1e	-gi.	.	.
.	.	.	.	.	.	4a\	   pe-
.	.	.	.	.	.	2a\	-ra
*	*	*lig	*	*	*ij	*	*
2.G\	.	1B	re-	2rd	.	2d\	me-
.	.	.	.	2.d\	o-	2g\	-a
4F/	.	.	.	.	.	.	.
=49-	=49-	=49-	=49-	=49-	=49-	=49-	=49-
2E/	-gi	1G	.	.	.	1g	re-
.	.	.	.	4d\	-pe-	.	.
2E/	me-	.	.	2c/	-ra	.	.
*	*	*Xlig	*	*	*	*	*
*	*	*lig	*	*	*	*	*
2.D/	-a	1A	-gi.	2d\	me-	2f#X\	-gi
.	.	.	.	1A/	-a	2f#\	me-
4C/	.	.	.	.	.	.	.
=50-	=50-	=50-	=50-	=50-	=50-	=50-	=50-
2BB/	.	1B	.	.	.	2d\	-a
2BB/	re-	.	.	2G/	re-	2d\	re-
*	*	*Xlig	*	*	*	*	*
*	*	*lig	*	*	*	*	*
1AA	-gi	1c	.	1A	-gi	1e	-gi
*	*	*	*	*	*Xij	*	*
=51-	=51-	=51-	=51-	=51-	=51-	=51-	=51-
1.D	di-	0A	.	1.d	di-	1.fny	di-
*	*	*	*	*custos:f	*	*	*
2C/	-co	.	.	2e\	-co	2e\	-co
!	!	!	!	!LO:PB:g=original	!	!	!
*	*	*Xlig	*	*	*	*	*
=52-	=52-	=52-	=52-	=52-	=52-	=52-	=52-
2D/	e-	000A;;	.	2f\	e-	2d\	e-
2AA/	-go	.	.	2e\	-go	2c#X/	-go
2.A\	o-	.	.	2.c#X/	o-	2.e\	o-
4G\	-pe-	.	.	4c#/	-pe-	4e\	-pe-
=53-	=53-	=53-	=53-	=53-	=53-	=53-	=53-
2F/	-ra	.	.	1c#X	   ra	2A/	   ra
2E/	.	.	.	.	.	2c/ny	o-
2D/	me-	.	.	2f\	me-	2d\	-pe-
*	*	*	*	*	*	*custos:f	*
2C/	-a	.	.	2e\	-a	2e\	-ra
!	!	!	!	!	!	!LO:LB:g=original	!
=54-	=54-	=54-	=54-	=54-	=54-	=54-	=54-
0D	re-	.	.	1.d	re-	2f\	me-
.	.	.	.	.	.	2f\	-a
.	.	.	.	.	.	2.f\	re-
.	.	.	.	4c#X/	.	.	.
.	.	.	.	4B/	.	8e\L	-gi.
.	.	.	.	.	.	8d\J	.
=55-	=55-	=55-	=55-	=55-	=55-	=55-	=55-
*	*	*	*	*custos:c	*	*	*
!	!	!	!	!	!	!LO:N:vis=00	!
!	!	!	!	!LO:N:vis=00	!	!	!
0AA;	-gi.	.	.	0c#X;<	-gi.	0e	.
.	.	.	.	.	.	.	.
!LO:LB:g=original	!	!	!	!LO:LB:g=original	!	!	!
*clefF5	*	*	*	*clefC5	*	*	*
=56-	=56-	=56-	=56-	=56-	=56-	=56-	=56-
1E	Glo-	1G	Glo-	1cny	Glo-	1.g	Glo-
1D	-ri-	1A	-ri-	2d\	-ri-	.	.
.	.	.	.	2d\	-a	2f\	-ri-
=57-	=57-	=57-	=57-	=57-	=57-	=57-	=57-
1C	-a	1c	-a	4e\	pa-	1e	-a
.	.	.	.	4d\	.	.	.
.	.	.	.	4c\	.	.	.
.	.	.	.	4B\	.	.	.
1F	pa-	1c	pa-	1A	.	1f	pa-
=58-	=58-	=58-	=58-	=58-	=58-	=58-	=58-
0.C	-tri	1c	-tri	2G/	-tri	1e	-tri
.	.	.	.	2G/	(et)	.	.
.	.	1c	et	4E/	fi-	2rf	.
.	.	.	.	4D/	.	.	.
.	.	.	.	4E/	.	2g\	(et)
.	.	.	.	4F/	.	.	.
=59-	=59-	=59-	=59-	=59-	=59-	=59-	=59-
.	.	1c	fi-	2G/	.	4e\	fi-
.	.	.	.	.	.	4d\	.
.	.	.	.	2G/	-li-	4e\	.
.	.	.	.	.	.	4f\	.
2r	.	1c	-li-	2C/	-o	2g\	-li-
*	*	*	*	*	*ij	*	*
2C/	(et)	.	.	2G/	(et)	2g\	-o
=60-	=60-	=60-	=60-	=60-	=60-	=60-	=60-
4AA/	fi-	1c,	-o	2.A/	fi-	2c/	.
4GG/	.	.	.	.	.	.	.
4AA/	.	.	.	.	.	2f\	(et)
4BB/	.	.	.	4A/	-li-	.	.
2C/	.	1c	e(t)	2G/	-o	2.e\	fi-
*	*	*	*	*	*Xij	*	*
*	*	*	*	*custos:A	*	*	*
2C/	-li-	.	.	2c\	(et)	.	.
.	.	.	.	.	.	4e\	-li-
!	!	!	!	!LO:LB:g=original	!	!	!
=61-	=61-	=61-	=61-	=61-	=61-	=61-	=61-
*	*	*custos:c	*	*	*	*	*
1FF	-o	1c	Spi:-	4A/	spi-	1f	-o
.	.	.	.	4G/	.	.	.
.	.	.	.	4A/	.	.	.
.	.	.	.	4B\	.	.	.
!	!	!LO:LB:g=original	!	!	!	!	!
2rAA	.	1c	-ri-	2c\	.	1f	et
2F\	(et)	.	.	2A/	-ri-	.	.
=62-	=62-	=62-	=62-	=62-	=62-	=62-	=62-
2E\	Spi-	1c	-tu-	2G/	-tu-	2g\	ſpi-
*	*	*	*	*	*	*custos:d	*
!LO:TX:t=P:problem=poprawka wysokości	!	!	!	!	!	!	!
2A\	-ri-	.	.	1c	-i	2a\	-ri-
!	!	!	!	!	!	!LO:LB:g=original	!
2G\	-tu-	1d	-i	.	.	2d\	-tu-
2GG/	-i	.	.	4B\	.	2g\	-i
.	.	.	.	4A/	.	.	.
=63-	=63-	=63-	=63-	=63-	=63-	=63-	=63-
1G	ſan-	1d	San-	1B	.	2.g\	ſan-
.	.	.	.	.	.	4f\	.
1C	-cto	1c	-cto	2c\	ſan-	1e,	-cto
.	.	.	.	2G/	-cto	.	.
=64-	=64-	=64-	=64-	=64-	=64-	=64-	=64-
*custos:C	*	*	*	*	*	*	*
1D	Si-	1A	Si-	2r	.	1.f	Si-
.	.	.	.	1F	Si-	.	.
!LO:LB:g=original	!	!	!	!	!	!	!
1C	-cut	1c	-cut	.	.	.	.
.	.	.	.	2G/	-cut	2e\	-cut
=65-	=65-	=65-	=65-	=65-	=65-	=65-	=65-
1F	e-	1c	e-	1A	e-	1f	e-
1C	-rat	1c	-rat	1G	-rat	1e	-rat
=66-	=66-	=66-	=66-	=66-	=66-	=66-	=66-
1r	.	1c	in	2.C/	in	2.e\	in
.	.	.	.	4D/	.	4d\	.
1.C	in	1c	prin-	2E/	.	4c/	.
.	.	.	.	.	.	4B/	.
.	.	.	.	2F/	prin-	2A/	prin-
=67-	=67-	=67-	=67-	=67-	=67-	=67-	=67-
.	.	1c	-ci-	2G/	.	2G/	-ci-
*	*	*	*	*custos:E	*	*	*
2C/	prin-	.	.	1F	.	2A/	-pi-
2C/	-ci-	1c	-pi-	.	.	4G/	.
.	.	.	.	.	.	4F/	.
!	!	!	!	!LO:LB:g=original	!	!	!
2C/	-pi-	.	.	2E/	-ci-	2G/	.
=68-	=68-	=68-	=68-	=68-	=68-	=68-	=68-
2FF/	-o	1c	-o	4F/	-pi-	4F/	-o
.	.	.	.	4G/	.	2.f\	et
2F\	et	.	.	2A\	-o	.	.
1G	nunc	1B	et	2rA	.	2d\	nu(n)c
.	.	.	.	2.e\	(et)	1g\	et
=69-	=69-	=69-	=69-	=69-	=69-	=69-	=69-
1A	et	1c	nunc	.	.	.	.
.	.	.	.	4d\	.	.	.
.	.	.	.	1c	nunc	2f\	ſem-
0G	ſem-	1d	et	.	.	0g	-p(er)
.	.	.	.	4B\	.	.	.
.	.	.	.	4A\	.	.	.
=70-	=70-	=70-	=70-	=70-	=70-	=70-	=70-
.	.	1d	ſem-	2B\	.	.	.
.	.	.	.	2B\	et	.	.
*	*	*custos:A	*	*	*	*	*
1C	-p(er)	1c	-per	2c\	ſem-	2rf	.
.	.	.	.	2G/	-per	1e\	et
!	!	!LO:LB:g=original	!	!	!	!	!
=71-	=71-	=71-	=71-	=71-	=71-	=71-	=71-
1D	et	1A	et	1F	et	.	.
.	.	.	.	.	.	2d\	in
1C	in	1c	in	1G	in	4e\	ſae-
.	.	.	.	.	.	2f\	.
*	*	*	*	*	*	*custos:f	*
.	.	.	.	.	.	4e\	-cu-
!	!	!	!	!	!	!LO:LB:g=original	!
=72-	=72-	=72-	=72-	=72-	=72-	=72-	=72-
1.F	ſ(ae)-	1c	ſae-	2A/	ſ(ae)-	0f	-la
.	.	.	.	2A/	-cu-	.	.
.	.	1c	-cu-	1A	-la	.	.
2F\	-cu-	.	.	.	.	.	.
=73-	=73-	=73-	=73-	=73-	=73-	=73-	=73-
1C	-la	1c	-la	2c\	ſ(ae)-	2rf	.
.	.	.	.	4G/	-cu-	2g\	ſe-
.	.	.	.	4A/	.	.	.
2G\	ſ(ae)-	1d	ſae-	4B\	.	2d\	-cu-
.	.	.	.	4c\	.	.	.
*	*	*	*	*custos:A	*	*	*
2D/	-cu-	.	.	2d\	.	2f\	-lo-
!	!	!	!	!LO:PB:g=original	!	!	!
=74-	=74-	=74-	=74-	=74-	=74-	=74-	=74-
2.F\	-lo-	1c	-cu-	2.A/	-lo-	1f,	-r(um)
*custos:A	*	*	*	*	*	*	*
4G\	.	.	.	4B\	.	.	.
!LO:PB:g=original	!	!	!	!	!	!	!
2A\	.	1A	-lo-	2c#X\	-rum	2e\	ſe-
2D/	-rum	.	.	2d\	.	2f#X\	-cu-
=75-	=75-	=75-	=75-	=75-	=75-	=75-	=75-
2E\	A-	1c	-rum.	2G/	A-	2g\	-lo-
2F\	-men	.	.	2A\	.	2c,/	-rum
*	*	*lig	*	*	*	*	*
2.G\	ſ(ae)-	1B	A-	2B\	-men	0g	A-
.	.	.	.	1d\	ſ(ae)-	.	.
4F\	.	.	.	.	.	.	.
=76-	=76-	=76-	=76-	=76-	=76-	=76-	=76-
2E\	.	1G	.	.	.	.	.
2E\	-cu-	.	.	2c\ny	-cu-	.	.
*	*	*Xlig	*	*	*	*	*
*	*	*lig	*	*	*	*	*
2D/	-lo-	1A	-men.	2d\	-lo-	2f#X,\	-me(n)
2F\	-rum	.	.	1A\	-rum	2d\	ſe-
=77-	=77-	=77-	=77-	=77-	=77-	=77-	=77-
1E	A-	1B	.	.	.	2e\	-cu-
.	.	.	.	2G/	A-	2e\	-lo-
*	*	*Xlig	*	*	*	*	*
0AA	-me(n)	1c	.	1A	-men	1e	-ru(m)
=78-	=78-	=78-	=78-	=78-	=78-	=78-	=78-
*	*	*	*	*	*ij	*	*
.	.	000A;;	.	2.e\	ſ(ae)-	2.c/	A-
.	.	.	.	4d\	-cu-	4d\	.
*	*ij	*	*	*	*	*	*
2.A\	ſ(ae)-	.	.	2.c\	-lo-	1e	-men
4G\	-cu-	.	.	4B\	.	.	.
=79-	=79-	=79-	=79-	=79-	=79-	=79-	=79-
*	*	*	*	*	*	*	*ij
2F\	-lo-	.	.	1A	-rum	2.a\	ſe-
2E\	-rum	.	.	.	.	.	.
.	.	.	.	.	.	4g\	-cu-
2D/	A-	.	.	2rA	.	2f\ny	-lo-
2C/	.	.	.	2c\	A-	2e\	-ru(m)
=80-	=80-	=80-	=80-	=80-	=80-	=80-	=80-
0D	.	.	.	2A\	.	2d\	A-
.	.	.	.	1d	.	1f	.
.	.	.	.	4c#X\	.	4e\	.
.	.	.	.	4B\	.	4d\	.
=81-	=81-	=81-	=81-	=81-	=81-	=81-	=81-
!	!	!	!	!LO:N:vis=00	!	!LO:N:vis=00	!
0AA;	-me(n)	.	.	0c#X;<	-men	0e	-men
*	*Xoij	*	*	*	*Xij	*	*Xij
=||	=||	=||	=||	=||	=||	=||	=||
*-	*-	*-	*-	*-	*-	*-	*-
!!!system-decoration: [(s1,s2,s3,s4)]
!!!RDF**kern: > = above
!!!RDF**kern: < = below
!!!ENC: Mateusz Solarz
!!!END: 2022-03-15
!!!EED: Antoni Szymański
!!!EEV: 2022-03-19
!!!YEC: Copyright 2022 Narodowy Instytut Fryderyka Chopina (https://polishscores.org)
!!!YEM: Licence CC BY 4.0 (https://creativecommons.org/licenses/by/4.0)
